X:144
T:Sir John Whiteford’s Strathspey. RH.144
R:Strathspey
S:Rev.R.Harrison’s MS,c1815,Cumbria
O:England
A:Temple Sowerby,Cumbria
Z:vmp.Simon Wilson. Review PJH, 2008.
M:C
L:1/8
Q:1/2=70
K:G
D|G>AGE EFG<g|d<BA<GE2E>F|\
G>AGD E>FGg|d>BA>BG2G:|!
c’|b>ga>f g>ed>B|A>cBGE2Ec’|\
b>gfa g<ed>B|A>GABG2Gb|!
g>bgd egd>B|A>cBDE2E>F|\
G>AGD EFG>g|d<BA>BG2G|]

